X:1
T:Die schöne Müllerin (D.795)
T:Pause
T:12. Pause
T:Franz Schubert
T:Die schöne Müllerin (D.795)
T:Friedrich Müller
T:OpenScore (CC0)
T:OpenScore (CC0)
T:OpenScore (CC0)
C:Franz Schubert
Z:Wilhelm Müller
Z:OpenScore (CC0)
%%score 1 { ( 2 4 ) | ( 3 5 ) }
L:1/8
Q:1/4=120
M:4/4
K:Bb
V:1 treble nm="Singstimme"
V:2 treble nm="Pianoforte"
V:4 treble 
V:3 bass 
V:5 bass 
V:1
"^Ziemlich geschwind." z8 | z8 | z8 | z8 | z8 | z8 | z8 | z8 | z4!p! F3 F | d2 B2 d2 c B | %10
w: ||||||||Mei- ne|Lau- te hab' ich ge-|
 A2 G A B4 | z4 F2 F F | d2 B2 d2 c B | (A2{BA)} GA B2 z B | d2 c B A2 B c | d2 c B A2 z2 | %16
w: hängt an die Wand,|hab' sie um-|schlun- gen mit ein- em|grü- nen * Band; ich|kann nicht mehr sin- gen, mein|Herz ist zu voll,|
 z4 d2 B2 | F2 F F d3 B | A2 GA B4 | z8 | dc cB B2 B2 | A2 A2 c2 B A | (B4 A2) z2 | %23
w: weiss nicht,|wie ich's in Rei- me|zwin- gen _ soll.||Mei- * ner * Sehn- sucht|al- ler- heis- ses- ten|Schmerz *|
 (c2 BA) Gd d>G | G=B d f f=e de | c4 z4 | dc c B B2 B2 | z2 A2 c2 BA | (B4 A2) z2 | cB BA G2 d2 | %30
w: durft' _ _ ich * aus- *|hau- * chen in Lie- * der- *|scherz,|und * wie ich klag- te|so süss und *|fein, _|glaubt' * ich * doch,  mein|
 f3 F =EG dc | A4 !fermata!z4 | z4!f! A3 A | B2 B B c3/2 c/ B c | _d4!p! fe dc | cB B_d dc c e | %36
w: Lei- den wär' * nicht *|klein.|Ei, wie|gross ist wohl mein- es Glü- ckes|Last, dass * kein *|Klang * auf * Er- * den es|
 e_d _gf e4 | fe _dc cB Bc | cB B c cB Bc | =A4 z4 | z8 | z8 | z8 | z8 | z8 | z4 F2 F F | %46
w: in _ sich * fasst,|dass * kein * Klang * auf *|Er- * den es in * sich *|fasst?||||||Nun, lie- be|
 d2 B2 d2 c B | A2 GA B4 | z2 z F F3 F | d2 B2 fd c B | A2 GA B3 d | e2 d c B2 c d | %52
w: Lau- te, ruh' an dem|Na- gel _ hier!|und weht ein|Lüft- chen ü- * ber die|Sai- ten _ dir, und|streift ei- ne Bie- ne mit|
 d3/2 e/ (3ed c B3 B |!p! =B2!<(! B B{B} c2 c2 | d2 G d f3/2 e/!mf! !fermata!e2!<)! | z8 | %56
w: ih- ren Flü- * geln dich, da|wird mir so ban- ge,|und es durch- schau- ert mich.||
 z2 z!p! E c4 | E2 F G _A3 A | cB _A B c4 | z4 z2 c2 | E2 F G _A2 A A | cB _A B c4 | z8 | %63
w: Wa- rum|liess ich  das Band auch|hän- * gen so lang?|Oft|fliegt's um die Sai- ten mit|seuf- * zen- dem Klang.||
 _c2 c c c_f f2- | f2 _f e =c3 _d/e/ | !fermata!_d4 B2 B B | f2 =dB FB Bd | e6 A2 | B4 z4 | z8 | %70
w: Ist es der Nach- * klang|_ mei- ner Lie- bes- *|pein? Soll es das|Vor- spiel * neu- * er *|Lie- der|sein?||
 z8 | _c2 c c c_f f2- | f2 _f e =c3 _d/e/ | !fermata!_d4 B2 B B | f2 =dB FB Bd | e6 A2 | B4 z4 | %77
w: |Ist es der Nach- * klang|_ mei- ner Lie- bes- *|pein? Soll es das|Vor- spiel * neu- * er *|Lie- der|sein?|
 z8 | z8 | z8 | z8 |] %81
w: ||||
V:2
 ([B,D]2{DE} [B,D]>[A,C] !>![DF]2 [B,D]) z | ([B,D]2{DE} [B,D]>[A,C] !>![DF]2 [B,D]) z | %2
 G2- (3GFE{E} G2- (3GFE | D2- (3DEF [A,C]4 | ([B,D]2{DE} [B,D]>[A,C] !>![DF]2 [B,D]) z | %5
 ([B,D]2{DE} [B,D]>[A,C] !>![DF]2!p! [B,D]) z |[K:bass] D2 (3DED C2 (3CDC | %7
 (([E,F,A,C]4 [D,F,B,]2)) z2 |[K:treble] ([B,D]2{DE} [B,D]>[A,C] !>![DF]2 [B,D]) z | %9
 ([B,D]2{DE} [B,D]>[A,C] !>![DF]2 [B,D]) z |{[CE][DF]} [EG]2- (3([EG][DF][CE] [B,D]4) | %11
 ([B,D]2{DE} [B,D]>[A,C] !>![DF]2 [B,D]) z | ([B,D]2{DE} [B,D]>[A,C] !>![DF]2 [B,D]) z | %13
{[CE][DF]} [EG]2- (3([EG][DF][CE] [B,D]4) | G4!p!!<(! C4!<)! |!mp!!>(! G4!>)!!p! C4 | %16
 ([B,D]2{DE} [B,D]>[A,C] !>![DF]2 [B,D]) z | ([B,D]2{DE} [B,D]>[A,C] !>![DF]2 [B,D]) z | %18
{[CE][DF]} [EG]2- (3([EG][DF][CE] [B,D]4) | (BA)(AG) [B,G]2 [B,G]2 | (BA)(AG) [B,G]2 [B,G]2 | %21
 [CD]2 ED [CDA]2 G^F | [B,G]4 [A,^F]4 | (AG)(G=F) [DFG]2 [DFG]2 | [DFG]2 [DFG]2 [C=EG]2 [=B,FG]2 | %25
 [C=EG]2 [CEG]2 [C_EG]2 [CEG]2 | (BA)(AG) [B,G]2 [B,G]2 | D2 ED [CEA]2 G^F | [B,G]4 [A,^F]4 | %29
 (AG)(G=F) [DFG]2 [DFG]2 | [CFA]2 [CFA]2 [B,=EG]2 [B,EG]2 | [A,F]3 F =EG !fermata!d (c | %32
 [A,FA]4) [A,_EFA]2 z2 | [B,_DFB]2 z2 [CE_G_Ac]2 z2 | [_DF_A_d]4 D4 | [B,_D]4 ([E_G-]4 | %36
 (([_DG]4) [_A,E]4)) | _D4 [B,D]4 | [B,E]4 (([B,=E]4 | [=A,F]4)) (c>B Bc) | A8 | %41
 ([B,D]2{DE} [B,D]>[A,C] !>![DF]2 [B,D]) z | ([B,D]2{DE} [B,D]>[A,C] !>![DF]2 [B,D]) z | %43
 (G2- (3GFE) (G2- (3GFE) | (D2- (3DEF) [A,C]4 | ([B,D]2{DE} [B,D]>[A,C] !>![DF]2 [B,D]) z | %46
 ([B,D]2{DE} [B,D]>[A,C] !>![DF]2 [B,D]) z |{[CE][DF]} !>![EG]2- (3([EG][DF][CE] [B,D]4) | %48
 ([B,D]2{DE} [B,D]>[A,C] !>![DF]2 [B,D]) z | ([B,D]2{DE} [B,D]>[A,C] !>![DF]2 [B,D]) z | %50
{[CE][DF]} !>![EG]2- (3([EG][DF][CE] [B,D]4) | A4!<(! D4!<)! |!mp!!>(! A4!>)!!pp! D4 | %53
!<(! [F_A=B]2 z2 [EAc]2 z2 |!mp! [FGd]2!<)! z2!>(! !fermata![EGe]4!>)! | %55
 ([_A,C]2{C_D} [A,C]>[G,B,] !>![CE]2 [A,C]) z | ([_A,C]2{C_D} [A,C]>[G,B,] !>![CE]2 [A,C]) z | %57
 ([_A,C]2{C_D} [A,C]>[G,B,] !>![CE]2 [A,C]) z | _E8 | %59
 ([_A,C]2{C_D} [A,C]>[G,B,] !>![CE]2 [A,C]) z | ([_A,C]2{C_D} [A,C]>[G,B,] !>![CE]2 [A,C]) z | %61
 _E8 | ([_A,_C]2{C_D} [A,C]>[G,B,]) [A,C_F]4- | [_A,_C_F]8- | [A,CF]4 (=C4 | %65
 (!fermata!_D4) [B,D]4) | [B,=D]8 | [F,A,C]8 | [F,B,]8 | %69
 ([G,B,]2{B,C} [G,B,]>[^F,A,]) !>![G,B,E]4 | ([_A,_C]2{C_D} [A,C]>[G,B,]) [A,C_F]4- | [A,CF]8- | %72
 [A,CF]4 (=C4 | !fermata!_D4) [B,D]4 | [B,=D]8 |[K:bass] [E,F,A,C]8 | [D,F,B,]8 | %77
[K:treble] ([B,D]2{DE} [B,D]>[A,C] !>![DF]2 [B,D]) z | ([B,_D]2{DE} [B,D]>[A,C] !>![DF]2 [B,D]) z | %79
[K:bass] =D2 (3DED C2 (3CDC | (([E,F,A,C]4 [D,F,B,]2)) z2 |] %81
V:3
!p! [B,,F,]8 | [B,,F,]8 | [B,,G,]4 [B,,A,]4 | (B,,2 D,2) F,4 | [B,,F,]8 | [B,,F,]8 | %6
 F,2 (3F,G,F, E,2 (3E,F,E, | (F,,4 B,,2) z2 | [B,,F,]8 | [B,,F,]8 | [B,,F,]8 | [B,,F,]8 | %12
 [B,,F,]8 | [B,,F,]8 | ([C,=E,]4 [C,F,]4) | ([C,=E,]4 F,4) |!pp! [B,,F,]8 | [B,,F,]8 | [B,,F,]8 | %19
 [G,,D,]2 [G,,D,]2 [G,,D,]2 [G,,D,]2 | [G,,D,]2 [G,,D,]2 [G,,D,]2 [G,,D,]2 | %21
 [^F,,D,]2 [F,,D,]2 [D,,D,]2 [D,,D,]2 | D,4 D,4 | [A,,=F,]2 [A,,F,]2 [B,,F,]2 [B,,F,]2 | %24
 [=B,,G,]2 [B,,G,]2 [C,G,]2 [G,,G,]2 | [C,G,]2 [C,G,]2 [C,G,]2 [C,G,]2 | %26
 [G,,D,]2 [G,,D,]2 [G,,D,]2 [G,,D,]2 | [^F,,D,]2 [F,,D,]2 [D,,D,]2 [D,,D,]2 | D,4 D,4 | %29
 [A,,=F,]2 [A,,F,]2 [B,,F,]2 [=B,,F,]2 | C,2 C,2 C,2 C,2 | [F,,C,]3 z !fermata![F,,C,]4- | %32
 [F,,C,]4!ff! [C,E,F,]2 z2 | [B,,_D,F,]2 z2 [_A,,E,_G,_A,]2 z2 | [_D,F,_A,]4!pp! [F,,F,]4 | %35
 [_G,,_D,]4 ([_A,,_G,-]4 | ([B,,G,-]4) [C,G,]4) | [F,,_D,]4 [_G,,D,]4 | [_G,,E,]4 (([G,,=E,]4 | %39
 [F,,F,]4)) ([_G,C-]4 | [F,C]8) |!pp! [B,,F,]8 | [B,,F,]8 | G,4 A,4 | (B,,2 D,2 F,4) | [B,,F,]8 | %46
 [B,,F,]8 | [B,,F,]8 | [B,,F,]8 | [B,,F,]8 | [B,,F,]8 | (^F,4 G,4) | ([D,^F,]4 G,4) | %53
 [D,_A,=B,]2 z2 [E,A,C]2 z2 | [=B,,G,]2 z2 !fermata![C,G,]4 |!pp! [_A,,E,]8 | [_A,,E,]8 | %57
 [_A,,E,]8 | [_A,,E,]8 | [_A,,E,]8 | [_A,,E,]8 | [_A,,E,]8 | [_A,,E,]4 [A,,_C,_F,]4- | %63
 [_A,,_C,_F,]8- | [A,,C,F,]4 [B,,_F,_G,]4- | (!fermata![B,,F,G,]4 [_G,,=E,]4) | [F,,F,]8 | %67
 [F,,E,]8 | [B,,D,]8 | [G,,D,]4 [G,,E,]4 | [_A,,E,]4!>(! [A,,_C,_F,]4-!>)! | [A,,C,F,]8- | %72
 [A,,C,F,]4 [B,,_F,_G,]4- | !fermata![B,,F,G,]4!pp! [_G,,=E,]4 | [F,,F,]8 | F,,8 | [B,,,B,,]8 | %77
 [B,,F,]8 | [B,,F,]8 | F,2 (3F,G,F, E,2 (3E,F,E, | (F,,4 B,,,2) z2 |] %81
V:4
 x8 | x8 | [B,E]4 [CE]4 | B,4 x4 | x8 | x8 |[K:bass] B,4 A,4 | x8 |[K:treble] x8 | x8 | x8 | x8 | %12
 x8 | x8 | B,2 CD C2 B,A, | B,2 CD C4 | x8 | x8 | x8 | B,2 B,2 x4 | B,2 B,2 x4 | x2 C2 x2 [CD]2 | %22
 D8 | C2 C2 x4 | x8 | x8 | B,2 B,2 x4 | C2 C2 x2 [CD]2 | D8 | C2 C2 x4 | x8 | x8 | x8 | x8 | %34
 x4 _A,2 =A,2 | x8 | x8 | _A,2 =A,2 x4 | x8 | x4 (=E4 | F8) | x8 | x8 | [B,E]4 [CE]4 | B,4 x4 | %45
 x8 | x8 | x8 | x8 | x8 | x8 | C2 (DE) D2 (CB,) | (C2 DE D4) | x8 | x8 | x8 | x8 | x8 | %58
 (([G,D]4 [_A,C]4)) | x8 | x8 | (([G,D]4 [_A,C]4)) | x8 | x8 | x8 | x8 | x8 | x8 | x8 | x8 | x8 | %71
 x8 | x8 | x8 | x8 |[K:bass] x8 | x8 |[K:treble] x8 | x8 |[K:bass] B,4 A,4 | x8 |] %81
V:5
 x8 | x8 | x8 | x8 | x8 | x8 | F,,4 F,,4 | x8 | x8 | x8 | x8 | x8 | x8 | x8 | x8 | x8 | x8 | x8 | %18
 x8 | x8 | x8 | x8 | (G,,>A,,B,,>C,) x4 | x8 | x8 | x8 | x8 | x8 | (G,,>A,,B,,>C,) x4 | x8 | x8 | %31
 x8 | x8 | x8 | x8 | x8 | x8 | x8 | x8 | x8 | x8 | x8 | x8 | B,,8 | x8 | x8 | x8 | x8 | x8 | x8 | %50
 x8 | D,8 | x8 | x8 | x8 | x8 | x8 | x8 | x8 | x8 | x8 | x8 | x8 | x8 | x8 | x8 | x8 | x8 | x8 | %69
 x8 | x8 | x8 | x8 | x8 | x8 | x8 | x8 | x8 | x8 | F,,4 F,,4 | x8 |] %81

